X:1
T:Cloisters, 11.11.11.5
T:Cloisters, 11.11.11.5
T:Joseph Barnby, 1868
T:Public Domain Courtesy of the Cyber Hymnal™
C:Joseph Barnby, 1868
Z:Public Domain
Z:Courtesy of the Cyber Hymnal™
%%score ( 1 2 ) ( 3 4 )
L:1/8
Q:1/4=110
M:3/4
K:Eb
V:1 treble 
V:2 treble 
V:3 bass 
V:4 bass 
V:1
 [EG]2 [EG]2 [EG]2 | [EG]4 [EG]2 | [EB][EA] [EG]2 [DF]2 | [DF]2 [EG]4 | [FG]2 [FG]2 [FG]2 | %5
 [EG]4 [Ge]2 | [^Fd]3 [Fc] [FB][F=A] | [^F=A]2 [GB]4 | [GB]2 [GB]2 [GB]2 | c4 [Fc]2 | %10
 [Fd]3 [Fd] [Fc][Fd] | [Fd]2 [Ee]4 | [Ee]2 [Ec]2 [EA]2 | F6 | E6 |] %15
V:2
 x6 | x6 | x6 | x6 | x6 | x6 | x6 | x6 | x6 | (G2 F2) x2 | x6 | x6 | x6 | (E2 D4) | E6 |] %15
V:3
 [E,B,]2 [E,B,]2 [E,B,]2 | [C,C]4 [C,C]2 | [G,,_D][A,,C] [B,,B,]2 [B,,A,]2 | [E,A,]2 [E,G,]4 | %4
 [D,=B,]2 [D,B,]2 [D,B,]2 | [C,C]4 [C,C]2 | (C2 z) [D,D] [D,C] x | [G,C]2 [G,B,]4 | %8
 [E,_D]2 [E,D]2 [E,D]2 | [A,,C]4 [A,C]2 | (C2 z) [G,=A,] [G,_B,] x | [C,=B,]2 [C,C]4 | %12
 [A,,C]2 [A,,A,]2 [A,,C]2 | (B,4 A,2) | [E,G,]6 |] %15
V:4
 x6 | x6 | x6 | x6 | x6 | x6 | D,3 (=A,2 D,) | x6 | x6 | x6 | G,3 (=B,2 G,) | x6 | x6 | B,,6 | %14
 x6 |] %15

